icon-svg/panel-glass-door2-open.svg

<?xml version="1.0" encoding="UTF-8"?>
<svg width="24px" height="24px" viewBox="0 0 24 24" version="1.1" fill="#44739e" xmlns="http://www.w3.org/2000/svg" xmlns:xlink="http://www.w3.org/1999/xlink">
            <path d="M 22.699219,2.140625 10.720703,2.169922 v 0.8417969 h 0.04687 L 10.720703,22.169922 10.767578,3.0117188 H 1.3691406 V 22.169922 22.929688 H 22.699219 Z m -10.40625,0.9355469 h 9.339843 V 22.119141 l -9.339843,-0.03125 z M 2.9199219,4.0703125 H 10.369141 V 13.269531 H 2.9199219 Z M 3.140625,4.25 v 8.820312 h 7 V 4.25 Z M 3.4394531,4.5507812 H 9.8203125 V 12.689453 H 3.4394531 Z M 2.9199219,14.160156 h 3.4199219 v 6.080078 H 2.9199219 Z m 4.0703125,0 h 3.3789066 v 6.080078 H 6.9902344 Z m -3.7910156,0.240235 v 5.628906 h 2.9003906 v -5.628906 z m 4,0 v 5.628906 h 2.9003902 v -5.628906 z m -3.7597657,0.208984 h 2.3398438 v 5.179687 H 3.4394531 Z m 4.0800781,0 h 2.3007813 v 5.179687 H 7.5507812 Z M 3.75,14.820312 v 4.779297 h 1.7890625 v -4.779297 z m 4,0 v 4.779297 h 1.8203125 v -4.779297 z"></path>

</svg>

<svg xmlns="http://www.w3.org/2000/svg" fill="#44739e" viewBox="0 0 24 24"><path d="M22.6992 2.1406 10.7207 2.17v.8418h.0469L10.7207 22.17l.0469-19.1582H1.369v19.918h21.3301Zm-10.4062.9356h9.3398v19.043l-9.3398-.0313zm-9.373.9941h7.4491v9.1992H2.92Zm.2206.1797v8.8203h7V4.25Zm.2989.3008h6.3808v8.1387H3.4395Zm-.5196 9.6094h3.42v6.08h-3.42Zm4.0703 0h3.379v6.08h-3.379Zm-3.791.2402v5.6289h2.9004v-5.629zm4 0v5.6289h2.9004v-5.629zm-3.7597.209h2.3398v5.1797H3.4395Zm4.08 0h2.3008v5.1797H7.5508Zm-3.7695.211v4.7792h1.789v-4.7793zm4 0v4.7792h1.8203v-4.7793z"/></svg>
